modules/hawcons-filled/icons/mail-envelope.svg

<?xml version="1.0" encoding="UTF-8" standalone="no"?>
<svg width="32px" height="32px" viewBox="0 0 32 32" version="1.1" xmlns="http://www.w3.org/2000/svg" xmlns:xlink="http://www.w3.org/1999/xlink" xmlns:sketch="http://www.bohemiancoding.com/sketch/ns">
    <!-- Generator: Sketch 3.0.3 (7891) - http://www.bohemiancoding.com/sketch -->
    <title>icon 1 mail envelope</title>
    <desc>Created with Sketch.</desc>
    <defs></defs>
    <g id="Page-1" stroke="none" stroke-width="1" fill="none" fill-rule="evenodd" sketch:type="MSPage">
        <g id="icon-1-mail-envelope" sketch:type="MSArtboardGroup" fill="#929292">
            <path d="M6.00359486,8 C4.89703997,8 4,8.89451376 4,9.99406028 L4,22.0059397 C4,23.1072288 4.88976324,24 6.00359486,24 L26.9964051,24 C28.10296,24 29,23.1054862 29,22.0059397 L29,9.99406028 C29,8.8927712 28.1102368,8 26.9964051,8 L6.00359486,8 Z M7,11 L7,12 L11,12 L11,11 L7,11 Z M23,11 L23,14 L26,14 L26,11 L23,11 Z M24,12 L24,13 L25,13 L25,12 L24,12 Z M7,18 L7,19 L15,19 L15,18 L7,18 Z M7,20 L7,21 L15,21 L15,20 L7,20 Z" id="mail-envelope" sketch:type="MSShapeGroup"></path>
        </g>
    </g>
</svg>

<svg width="32" height="32" viewBox="0 0 32 32" xmlns="http://www.w3.org/2000/svg"><path d="M6.004 8A2 2 0 0 0 4 9.994v12.012C4 23.107 4.89 24 6.004 24h20.992A2 2 0 0 0 29 22.006V9.994C29 8.893 28.11 8 26.996 8H6.004zM7 11v1h4v-1H7zm16 0v3h3v-3h-3zm1 1v1h1v-1h-1zM7 18v1h8v-1H7zm0 2v1h8v-1H7z" fill="#929292" fill-rule="evenodd"/></svg>
